X:1
T:The Giver
T:Silent Night 
T:John Wang 
C:John
%%score [ 1 2 3 4 ]
L:1/8
Q:1/4=52
M:3/4
K:A
V:1 treble nm="Soprano" snm="S."
V:2 treble nm="Alto" snm="A."
V:3 treble-8 nm="Tenor" snm="T."
V:4 bass nm="Bass" snm="B."
V:1
"^Lento" z6 | z6 | z6 | z6 | z6 | z6 | z6 | z6 | z6 | z6 | z6 | z6 | z6 | z6 | z6 | z6 | z6 | z6 | %18
 z6 | z6 | z6 | z6 | z6 | z6 |!mf![Q:1/4=114]"^Moderato" c3 d c2 | A6 | c3 d c2 | G6 | g4 g2 | %29
 =f6 | f4 f2 | c6 | d4 d2 | f2 e2 d2 | c3 d c2 | A6 | d4 d2 | f2 e2 d2 | c3 d c2 | A6 | g4 g2 | %41
 b2 g2 =f2 | f6 | a6 | f2 c2 A2 | d2 B2 G2 | F6- | F6 |!f![Q:1/4=118]"^Allegro moderato" d3 _e d2 | %49
 _B6 | d3 _e d2 | A6 | a4 a2 | f6 | =g4 g2 | d6 | _e4 e2 | =g2 =f2 _e2 | d3 _e d2 | _B6 | _e4 e2 | %61
 =g2 =f2 _e2 | d3 _e d2 | _B6 | a4 a2 | =c'2 a2 f2 | =g6 | !fermata!_b6 | =g2 d2 _B2 | _e2 =c2 A2 | %70
 =G6- | G6- | G6 | A6- | A6 | =G6- | G6 | z6 |!p! =G6- | G6 | z6 |!mf! =G6- | G6 | F2 =G2 B2- | %84
 B6 | A6 | =G2 =g4- | g6- | g6- | g6 |] %90
V:2
!mp! C2 D2 C2 | A,6 |!mp! C2 D2 C2 | G,6 | G4- G2 | ^E6 | F4- F2 | C6 | D4- D2 | F2 E2 D2 | %10
!mp! C2 D2 C2 | A,6 | D4- D2 | F2 E2 D2 |!mp! C2 D2 C2 | A,6 | G4- G2 | B2 G2 ^E2 | F6 | A6 | %20
 F2 C2 A,2 | D2 B,2 G,2 | F,6- | F,6 |!pp! A,6 | F,6 | A,6 | =F,6 | B,6 | C6 | A,6 | F,6 | A,6 | %33
 D6 | A,6 | F,6 | F,6 | D6 | A,6 | F,6 | B,6 | G,6 | C6 | A,6 | F6 | D6 | A,6- | A,6 | %48
!mf! _B3 =c B2 | =G6 | A3 =c A2 | F6 | =c4 c2 | d6 | _B4 B2 | =G6 | _B4 B2 | _e2 e2 _B2 | %58
 _B3 =c B2 | =G6 | =G4 G2 | _e2 e2 _B2 | _B3 =c B2 | =G6 | =c4 c2 | A2 =c2 _e2 | d6 | %67
 !fermata!_B6 | D2 =G2 _B2 | =c2 A2 F2 | _E6 | D6 | C6 | =C6- | C6 | D6- | D6 | z4 z2 |!p! D6- | %79
 D6 | z6 |!pp! .D6- | D6 | _E4 D-D- | D6 | =C6 | z6 | B,6- | B,6- | B,6 |] %90
V:3
!pp! A6 | F6 | A6 | ^E6 | B6 | c6 | A6 | F6 | A6 | d6 | A6 | F6 | F6 | d6 | A6 | F6 | B6 | G6 | %18
 c6 | A6 | C6 | D6 | C6- | C6 |!mf! z6 | c3 d c2 | A6 | c3 d c2 | G6 | g4 g2 | f6 | f4 f2 | d4 d2 | %33
 f2 e2 d2 | A6 | c3 d c2 | d4 d2 | f2 e2 d2 | A6 | c3 d c2 | g4 g2 | b2 g2 =f2 | f6 | a6 | C6 | %45
 D6 | C6- | C6 |!mf! =g3 a g2 | d6 | =g3 a g2 | d6 | _e4 e2 | a6 | d4 d2 | _B6 | _e4 e2 | %57
 _b2 b2 =g2 | =g3 a g2 | d6 | _e4 e2 | _b2 b2 =g2 | =g3 a g2 | d6 | _e4 e2 | f2 _e2 =c2 | _b6 | %67
 !fermata!=g6 | _B2 B2 d2 | a2 _e2 =c2 | _E6 | D6 | C6 | =F6- | FA =c=f a=c' | B6- | B6 | z4 z2 | %78
!p! B6- | B6 | z6 |!pp! .B6- | B6 | =c4 B-B- | B6 | A6 | z6 | D6- | D6- | D6 |] %90
V:4
!pp! F,,6 | C,6 | F,,6 | C,6 | D,6 | G,6 | C,6 | A,,6 | D,6 | A,6 | F,6 | C,6 | D,6 | A,6 | F,6 | %15
 C,6 | D,6 | ^E,6 | A,6 | F,6 | A,,6 | G,,6 | F,,6- | F,,6 |!pp! F,,6 | _D,6 | F,,6 | C,6 | D,6 | %29
 G,6 | C,6 | A,,6 | D,6 | A,6 | F,6 | C,6 | D,6 | A,6 | F,6 | C,6 | D,6 | =F,6 | A,6 | F,6 | A,,6 | %45
 G,,6 | F,,6- | F,,6 |!mf! =G,,_B,, D,_E, D,B,, | =G,,_B,, D,_E, D,B,, | F,,A,, D,_E, D,A,, | %51
 F,,A,, D,_E, D,A,, | A,,=C, D,_E, D,A,, | F,,A,, =C,D, C,A,, | =G,,_B,, D,_E, D,B,, | %55
 =G,,_B,, D,_E, D,B,, | _B,,_E, =G,_B, G,E, | _B,,_E, =G,_B, G,E, | _B,,D, =G,_B, G,D, | %59
 _B,,D, =G,_B, G,D, | _B,,_E, =G,_B, G,E, | _B,,_E, =G,_B, G,E, | _B,,D, =G,_B, G,D, | %63
 _B,,D, =G,_B, G,D, | =C,_E, A,=C A,E, | =C,_E, A,=C A,E, | D,=G, _B,D B,G, | D,=G, _B,D B,G, | %68
 _B,,D, =G,_B, G,D, | A,,=C, _E,A, E,C, | _B,,_E, =G,_B, G,E, | _B,,D, =G,_B, G,D, | %72
 _B,,C, =G,_B, G,C, | =F,,A,, =C,=F, A,=C- | C6 | D,6- | D,6 | z4 z2 |!p! D,6- | D,6 | z6 | %81
!pp! .D,6- | D,6 | _E,4 D,-D,- | D,6 | =C,6 | z6 | B,,6- | B,,6- | B,,6 |] %90

